T: Joanie's
M: 3/4
L: 1/8
K: Gmaj
|: D>G |B>d B>G D>G | B>d B>G D>F | A>c A>F (3DEF | G>F G>E D>G |
B>d B>G D>G | B>d B>G D>F | A>c A>F (3DEF | G2 G2 :|
|: g>f |e>E C>E e>^c | d>D G,>D B,>D | C>D A,>D F>A | B>^A B>c d>g |
e>E C>E e>^c | d>D G,>D B,>D | ^c>d e>=c (3DEF | G2 G2 :|
